X: 3
T: Paddy Fahey's
R: reel
M: 4/4
L: 1/8
K: Cmaj
|:c2eg fdBd|cBGF DEFD|Gc~c2 gceg|fdcB GcBd|c2de fdBd|cBGA _B2Bc|dg(3ggg defd|gfdc BGAB:|


Tune 1402	Setting 1402

